app/assets/images/features/events/da/yv-logo-white.svg

<?xml version="1.0" encoding="UTF-8" standalone="no"?>
<svg width="109px" height="33px" viewBox="0 0 109 33" version="1.1" xmlns="http://www.w3.org/2000/svg" xmlns:xlink="http://www.w3.org/1999/xlink">
    <!-- Generator: Sketch 3.8.3 (29802) - http://www.bohemiancoding.com/sketch -->
    <title>yv logo dutch copy</title>
    <desc>Created with Sketch.</desc>
    <defs></defs>
    <g id="yv-events-english" stroke="none" stroke-width="1" fill="none" fill-rule="evenodd">
        <g id="yv-logo-dutch-copy" fill="#FFFFFF">
            <g id="YouVersion-+-EVENTS-+-yv-logo">
                <g id="YouVersion-+-EVENTS" transform="translate(6.000000, 24.000000)">
                    <path d="M0.911999428,6 L3.50399943,6 C4.75199943,6 5.57599943,5.464 5.57599943,4.464 L5.57599943,4.448 C5.57599943,3.688 5.11999943,3.312 4.46399943,3.088 C4.87999943,2.872 5.26399943,2.512 5.26399943,1.84 L5.26399943,1.824 C5.26399943,1.456 5.13599943,1.144 4.88799943,0.896 C4.56799943,0.576 4.06399943,0.4 3.42399943,0.4 L0.911999428,0.4 L0.911999428,6 Z M4.27999943,2 C4.27999943,2.512 3.85599943,2.76 3.22399943,2.76 L1.87999943,2.76 L1.87999943,1.272 L3.29599943,1.272 C3.92799943,1.272 4.27999943,1.544 4.27999943,1.984 L4.27999943,2 Z M4.59199943,4.344 L4.59199943,4.36 C4.59199943,4.864 4.17599943,5.128 3.51199943,5.128 L1.87999943,5.128 L1.87999943,3.592 L3.43999943,3.592 C4.21599943,3.592 4.59199943,3.872 4.59199943,4.344 L4.59199943,4.344 Z M9.14399952,6 L10.1279995,6 L10.1279995,0.4 L9.14399952,0.4 L9.14399952,6 Z M15.2639996,6.08 C15.8239996,6.08 16.2959996,5.912 16.6239996,5.584 C16.9519996,5.256 17.1519996,4.76 17.1519996,4.096 L17.1519996,0.4 L16.1359996,0.4 L16.1359996,4.064 C16.1359996,4.816 15.7759996,5.168 15.2479996,5.168 C14.7759996,5.168 14.4479996,4.928 14.1199996,4.504 L13.4719996,5.176 C13.8399996,5.68 14.3999996,6.08 15.2639996,6.08 L15.2639996,6.08 Z M20.9039997,6 L25.0959997,6 L25.0959997,5.12 L21.8879997,5.12 L21.8879997,3.624 L24.6959997,3.624 L24.6959997,2.736 L21.8879997,2.736 L21.8879997,1.28 L25.0559997,1.28 L25.0559997,0.4 L20.9039997,0.4 L20.9039997,6 Z M28.6639998,6 L32.8559998,6 L32.8559998,5.12 L29.6479998,5.12 L29.6479998,3.624 L32.4559998,3.624 L32.4559998,2.736 L29.6479998,2.736 L29.6479998,1.28 L32.8159998,1.28 L32.8159998,0.4 L28.6639998,0.4 L28.6639998,6 Z M36.4239999,6 L37.3919999,6 L37.3919999,2.016 L40.4799999,6 L41.3039999,6 L41.3039999,0.4 L40.3359999,0.4 L40.3359999,4.272 L37.3359999,0.4 L36.4239999,0.4 L36.4239999,6 Z M45.144,6 L46.128,6 L46.128,4.376 L47,3.48 L48.912,6 L50.112,6 L47.672,2.808 L50.008,0.4 L48.784,0.4 L46.128,3.216 L46.128,0.4 L45.144,0.4 L45.144,6 Z M55.6080001,6.096 C57.3280001,6.096 58.5440001,4.776 58.5440001,3.2 L58.5440001,3.184 C58.5440001,1.608 57.3440001,0.304 55.6240001,0.304 C53.9040001,0.304 52.6880001,1.624 52.6880001,3.2 L52.6880001,3.216 C52.6880001,4.792 53.8880001,6.096 55.6080001,6.096 L55.6080001,6.096 Z M55.6240001,5.184 C54.5120001,5.184 53.7200001,4.288 53.7200001,3.2 L53.7200001,3.184 C53.7200001,2.096 54.4960001,1.216 55.6080001,1.216 C56.7200001,1.216 57.5120001,2.112 57.5120001,3.2 L57.5120001,3.216 C57.5120001,4.304 56.7360001,5.184 55.6240001,5.184 L55.6240001,5.184 Z M62.1360002,6 L63.1040002,6 L63.1040002,2 L64.8560002,4.624 L64.8880002,4.624 L66.6560002,1.984 L66.6560002,6 L67.6400002,6 L67.6400002,0.4 L66.5920002,0.4 L64.8880002,3.048 L63.1840002,0.4 L62.1360002,0.4 L62.1360002,6 Z M73.4400003,6.08 C74.6160003,6.08 75.4400003,5.456 75.4400003,4.408 L75.4400003,4.392 C75.4400003,3.464 74.8320003,3.04 73.6480003,2.752 C72.5680003,2.496 72.3120003,2.304 72.3120003,1.872 L72.3120003,1.856 C72.3120003,1.488 72.6480003,1.192 73.2240003,1.192 C73.7360003,1.192 74.2400003,1.392 74.7440003,1.768 L75.2720003,1.024 C74.7040003,0.568 74.0560003,0.32 73.2400003,0.32 C72.1280003,0.32 71.3280003,0.984 71.3280003,1.944 L71.3280003,1.96 C71.3280003,2.992 72.0000003,3.344 73.1920003,3.632 C74.2320003,3.872 74.4560003,4.088 74.4560003,4.488 L74.4560003,4.504 C74.4560003,4.92 74.0720003,5.208 73.4640003,5.208 C72.7760003,5.208 72.2320003,4.944 71.6960003,4.48 L71.1040003,5.184 C71.7760003,5.784 72.5840003,6.08 73.4400003,6.08 L73.4400003,6.08 Z M80.2560004,6 L81.2400004,6 L81.2400004,1.312 L83.0240004,1.312 L83.0240004,0.4 L78.4720004,0.4 L78.4720004,1.312 L80.2560004,1.312 L80.2560004,6 Z M86.4480005,6 L90.6400005,6 L90.6400005,5.12 L87.4320005,5.12 L87.4320005,3.624 L90.2400005,3.624 L90.2400005,2.736 L87.4320005,2.736 L87.4320005,1.28 L90.6000005,1.28 L90.6000005,0.4 L86.4480005,0.4 L86.4480005,6 Z M94.2080006,6 L95.1760006,6 L95.1760006,2.016 L98.2640006,6 L99.0880006,6 L99.0880006,0.4 L98.1200006,0.4 L98.1200006,4.272 L95.1200006,0.4 L94.2080006,0.4 L94.2080006,6 Z" id="BIJEENKOMSTEN"></path>
                </g>
                <g id="yv-logo">
                    <polygon id="Fill-1" points="11.31856 0.805784615 7.16041185 7.42075897 3.04465259 0.805784615 -8.07407405e-05 0.805784615 5.83747481 9.85398974 5.83747481 15.744041 8.44176741 15.744041 8.44176741 9.78998974 14.279323 0.805784615"></polygon>
                    <path d="M17.9328819,6.50358974 C15.895793,6.50358974 14.5938485,8.12533333 14.5938485,10.1101538 C14.5938485,12.1163077 16.0011596,13.7593846 17.974867,13.7593846 C20.0329485,13.7593846 21.334893,12.1372308 21.334893,10.1528205 C21.334893,8.14666667 19.9275819,6.50358974 17.9328819,6.50358974 M17.9328819,15.9997949 C14.5518633,15.9997949 12.0533411,13.3753846 12.0533411,10.1528205 C12.0533411,6.90892308 14.5732596,4.2414359 17.974867,4.2414359 C21.3768781,4.2414359 23.8758041,6.86625641 23.8758041,10.1101538 C23.8758041,13.3327179 21.3558856,15.9997949 17.9328819,15.9997949" id="Fill-2"></path>
                    <path d="M32.9054044,4.47634872 L35.4463156,4.47634872 L35.4463156,15.744041 L32.9054044,15.744041 L32.9054044,13.9938872 C32.1912526,15.0609641 31.1626156,15.9787077 29.4404156,15.9787077 C26.9418933,15.9787077 25.492597,14.2716308 25.492597,11.6468103 L25.492597,4.47634872 L28.0335081,4.47634872 L28.0335081,10.8779897 C28.0335081,12.6281436 28.8942044,13.6312205 30.4068822,13.6312205 C31.8763637,13.6312205 32.9054044,12.5858872 32.9054044,10.8357333 L32.9054044,4.47634872 Z" id="Fill-4"></path>
                    <polygon id="Fill-6" points="48.5288185 0.805702564 51.3216407 0.805702564 45.2107778 15.8506256 42.9427704 15.8506256 36.8319074 0.805702564 39.6881111 0.805702564 44.1187593 12.2867282"></polygon>
                    <path d="M58.5665881,9.32049231 C58.3982437,7.65567179 57.4321807,6.35433846 55.7523696,6.35433846 C54.1985141,6.35433846 53.1068993,7.57033846 52.875577,9.32049231 L58.5665881,9.32049231 Z M56.0882511,13.8874667 C57.3276215,13.8874667 58.2093104,13.4177231 59.091403,12.5426462 L60.5822807,13.8874667 C59.5326511,15.1678769 58.0833548,15.9998769 56.0466696,15.9998769 C52.8335919,15.9998769 50.3556585,13.6314667 50.3556585,10.1315692 C50.3556585,6.88767179 52.6026733,4.24151795 55.7733622,4.24151795 C59.3013289,4.24151795 61.086103,7.05833846 61.086103,10.3235692 C61.086103,10.5582359 61.0651104,10.7715692 61.0445215,11.0275692 L52.8965696,11.0275692 C53.1908696,12.8630564 54.4508289,13.8874667 56.0882511,13.8874667 L56.0882511,13.8874667 Z" id="Fill-8"></path>
                    <path d="M65.3487296,15.744 L62.8078185,15.744 L62.8078185,4.47630769 L65.3487296,4.47630769 L65.3487296,7.01579487 C66.0418889,5.32964103 67.3228407,4.17764103 69.2759593,4.26297436 L69.2759593,6.99446154 L69.1286074,6.99446154 C66.9029889,6.99446154 65.3487296,8.46687179 65.3487296,11.4547692 L65.3487296,15.744 Z" id="Fill-10"></path>
                    <path d="M74.8614019,15.9575385 C73.2865537,15.9575385 71.5433611,15.3811282 70.15785,14.2717949 L71.29145,12.521641 C72.4884315,13.4389744 73.7903759,13.9087179 74.9243796,13.9087179 C76.0163981,13.9087179 76.6465796,13.4389744 76.6465796,12.6923077 L76.6465796,12.649641 C76.6465796,11.7749744 75.4705907,11.4758974 74.1682426,11.0705641 C72.5308204,10.6008205 70.7032537,9.91774359 70.7032537,7.76266667 L70.7032537,7.72 C70.7032537,5.58625641 72.4464463,4.28410256 74.6510722,4.28410256 C76.0373907,4.28410256 77.5492611,4.77476923 78.72525,5.56451282 L77.7172019,7.4 C76.6465796,6.73825641 75.5121722,6.33292308 74.5884981,6.33292308 C73.6014426,6.33292308 73.0346426,6.80266667 73.0346426,7.464 L73.0346426,7.50625641 C73.0346426,8.31774359 74.2312204,8.65907692 75.5335685,9.08574359 C77.1504019,9.59774359 78.9771611,10.3448205 78.9771611,12.3723077 L78.9771611,12.4149744 C78.9771611,14.7837949 77.1713944,15.9575385 74.8614019,15.9575385" id="Fill-12"></path>
                    <path d="M80.8666963,4.47630769 L83.4076074,4.47630769 L83.4076074,15.744 L80.8666963,15.744 L80.8666963,4.47630769 Z M80.762137,0.29374359 L83.4923852,0.29374359 L83.4923852,2.74748718 L80.762137,2.74748718 L80.762137,0.29374359 Z" id="Fill-14"></path>
                    <path d="M91.1566193,6.50358974 C89.1195304,6.50358974 87.8175859,8.12533333 87.8175859,10.1101538 C87.8175859,12.1163077 89.224897,13.7593846 91.1986044,13.7593846 C93.2566859,13.7593846 94.5586304,12.1372308 94.5586304,10.1528205 C94.5586304,8.14666667 93.1513193,6.50358974 91.1566193,6.50358974 M91.1566193,15.9997949 C87.7756007,15.9997949 85.2770785,13.3753846 85.2770785,10.1528205 C85.2770785,6.90892308 87.796997,4.2414359 91.1986044,4.2414359 C94.6006156,4.2414359 97.0995415,6.86625641 97.0995415,10.1101538 C97.0995415,13.3327179 94.579623,15.9997949 91.1566193,15.9997949" id="Fill-16"></path>
                    <path d="M101.383241,15.744 L98.8419267,15.744 L98.8419267,4.47630769 L101.383241,4.47630769 L101.383241,6.22646154 C102.097393,5.15897436 103.12603,4.24164103 104.847827,4.24164103 C107.346753,4.24164103 108.795645,5.94871795 108.795645,8.57353846 L108.795645,15.744 L106.254734,15.744 L106.254734,9.34194872 C106.254734,7.59220513 105.394038,6.58912821 103.881764,6.58912821 C102.412282,6.58912821 101.383241,7.63446154 101.383241,9.38461538 L101.383241,15.744 Z" id="Fill-17"></path>
                </g>
            </g>
        </g>
    </g>
</svg>

<svg viewBox="0 0 109 33" xmlns="http://www.w3.org/2000/svg"><g fill="#fff" fill-rule="evenodd"><path d="m.912 6h2.592c1.248 0 2.072-.536 2.072-1.536v-.016c0-.76-.456-1.136-1.112-1.36.416-.216.8-.576.8-1.248v-.016c0-.368-.128-.68-.376-.928-.32-.32-.824-.496-1.464-.496h-2.512v5.6m3.368-4c0 .512-.424.76-1.056.76h-1.344v-1.488h1.416c.632 0 .984.272.984.712v.016m.312 2.344v.016c0 .504-.416.768-1.08.768h-1.632v-1.536h1.56c.776 0 1.152.28 1.152.752m4.552 1.656h.984v-5.6h-.984v5.6m6.12.08c.56 0 1.032-.168 1.36-.496.328-.328.528-.824.528-1.488v-3.696h-1.016v3.664c0 .752-.36 1.104-.888 1.104-.472 0-.8-.24-1.128-.664l-.648.672c.368.504.928.904 1.792.904m5.64-.08h4.192v-.88h-3.208v-1.496h2.808v-.888h-2.808v-1.456h3.168v-.88h-4.152v5.6m7.76 0h4.192v-.88h-3.208v-1.496h2.808v-.888h-2.808v-1.456h3.168v-.88h-4.152v5.6m7.76 0h.968v-3.984l3.088 3.984h.824v-5.6h-.968v3.872l-3-3.872h-.912v5.6m8.72 0h.984v-1.624l.872-.896 1.912 2.52h1.2l-2.44-3.192 2.336-2.408h-1.224l-2.656 2.816v-2.816h-.984v5.6m10.464.096c1.72 0 2.936-1.32 2.936-2.896v-.016c0-1.576-1.2-2.88-2.92-2.88-1.72 0-2.936 1.32-2.936 2.896v.016c0 1.576 1.2 2.88 2.92 2.88m.016-.912c-1.112 0-1.904-.896-1.904-1.984v-.016c0-1.088.776-1.968 1.888-1.968 1.112 0 1.904.896 1.904 1.984v.016c0 1.088-.776 1.968-1.888 1.968m6.512.816h.968v-4l1.752 2.624h.032l1.768-2.64v4.02h.984v-5.6h-1.048l-1.704 2.648-1.704-2.648h-1.048v5.6m11.304.08c1.176 0 2-.624 2-1.672v-.016c0-.928-.608-1.352-1.792-1.64-1.08-.256-1.336-.448-1.336-.88v-.016c0-.368.336-.664.912-.664.512 0 1.016.2 1.52.576l.528-.744c-.568-.456-1.216-.704-2.032-.704-1.112 0-1.912.664-1.912 1.624v.016c0 1.032.672 1.384 1.864 1.672 1.04.24 1.264.456 1.264.856v.016c0 .416-.384.704-.992.704-.688 0-1.232-.264-1.768-.728l-.592.704c.672.6 1.48.896 2.336.896m6.816-.08h.984v-4.688h1.784v-.912h-4.552v.912h1.784v4.688m6.192 0h4.192v-.88h-3.208v-1.496h2.808v-.888h-2.808v-1.456h3.168v-.88h-4.152v5.6m7.76 0h.968v-3.984l3.088 3.984h.824v-5.6h-.968v3.872l-3-3.872h-.912v5.6" transform="translate(6 24)"/><g><path d="m11.319.806l-4.159 6.615-4.115-6.615h-3.045l5.837 9.05v5.89h2.605v-5.954l5.837-8.984z"/><path d="m17.933 6.504c-2.037 0-3.339 1.622-3.339 3.607 0 2.01 1.407 3.649 3.381 3.649 2.058 0 3.36-1.622 3.36-3.607 0-2.01-1.407-3.649-3.402-3.649m0 9.496c-3.381 0-5.88-2.624-5.88-5.847 0-3.244 2.52-5.911 5.922-5.911 3.402 0 5.901 2.625 5.901 5.869 0 3.223-2.52 5.89-5.943 5.89"/><path d="m32.905 4.476h2.541v11.268h-2.541v-1.75c-.714 1.067-1.743 1.985-3.465 1.985-2.499 0-3.948-1.707-3.948-4.332v-7.17h2.541v6.402c0 1.75.861 2.753 2.373 2.753 1.469 0 2.499-1.045 2.499-2.795v-6.359"/><path d="m48.529.806h2.791l-6.11 15.05h-2.267l-6.111-15.05h2.856l4.432 11.481z"/><path d="m58.57 9.32c-.168-1.665-1.134-2.966-2.814-2.966-1.554 0-2.645 1.216-2.877 2.966h5.691m-2.478 4.567c1.239 0 2.121-.47 3-1.345l1.491 1.345c-1.05 1.28-2.499 2.112-4.536 2.112-3.213 0-5.691-2.368-5.691-5.868 0-3.244 2.247-5.89 5.418-5.89 3.528 0 5.313 2.817 5.313 6.082 0 .235-.021.448-.042.704h-8.148c.294 1.835 1.554 2.86 3.192 2.86"/><path d="m65.35 15.744h-2.541v-11.268h2.541v2.539c.693-1.686 1.974-2.838 3.927-2.753v2.731h-.147c-2.226 0-3.78 1.472-3.78 4.46v4.289"/><path d="m74.861 15.958c-1.575 0-3.318-.576-4.704-1.686l1.134-1.75c1.197.917 2.499 1.387 3.633 1.387 1.092 0 1.722-.47 1.722-1.216v-.043c0-.875-1.176-1.174-2.478-1.579-1.637-.47-3.465-1.153-3.465-3.308v-.043c0-2.134 1.743-3.436 3.948-3.436 1.386 0 2.898.491 4.074 1.28l-1.01 1.835c-1.071-.662-2.205-1.067-3.129-1.067-.987 0-1.554.47-1.554 1.131v.042c0 .811 1.197 1.153 2.499 1.579 1.617.512 3.444 1.259 3.444 3.287v.043c0 2.369-1.806 3.543-4.116 3.543"/><path d="m80.87 4.476h2.541v11.268h-2.541v-11.268m-.105-4.183h2.73v2.454h-2.73v-2.454"/><path d="m91.16 6.504c-2.037 0-3.339 1.622-3.339 3.607 0 2.01 1.407 3.649 3.381 3.649 2.058 0 3.36-1.622 3.36-3.607 0-2.01-1.407-3.649-3.402-3.649m0 9.496c-3.381 0-5.88-2.624-5.88-5.847 0-3.244 2.52-5.911 5.922-5.911 3.402 0 5.901 2.625 5.901 5.869 0 3.223-2.52 5.89-5.943 5.89"/><path d="m101.38 15.744h-2.541v-11.268h2.541v1.75c.714-1.067 1.743-1.985 3.465-1.985 2.499 0 3.948 1.707 3.948 4.332v7.17h-2.541v-6.402c0-1.75-.861-2.753-2.373-2.753-1.469 0-2.499 1.045-2.499 2.795v6.359"/></g></g></svg>
